X:1
T:Title
%%score ( 1 2 ) ( 3 4 )
L:1/8
Q:1/4=103
M:6/8
K:Ab
V:1 treble nm="Grand Piano, Soprano"
V:2 treble 
V:3 bass nm="Choir Pad, Sweeter Than All Is Jesus"
V:4 bass 
V:1
 [Ec]2 [Ec] [Fd]2 [Ec] | [=Dc]2 [DB] [DF]3 | [DB]2 [DB] [Ec]2 [DB] | [DB]2 [CA] [CE]3 | %4
w: By~Max~Hutchison~Rapp * * *||||
 [Ec]2 [Ec] [Fd]2 [Ec] | [Fe]2 [Fd] [DF]3 | [CE][CA][DB] [Ec]2 [CA] | [DB]3 .[CA]3 | [Ae]3 [Ac]3 | %9
w: |||||
 [FB]2 [FA] [DF]3 | [CE]2 [CA] cB[CA] | [=DB]2 [DB] [EB]3 | [Ae]3 [Ac]3 | [Ac]2 c/e/ [Fd]3 | %14
w: |||||
 [DF][DA][Fd] [Ec]2 [CA] | [DB]3 [CA]3- | [CA]6 |] %17
w: |||
V:2
 x6 | x6 | x6 | x6 | x6 | x6 | x6 | x6 | x6 | x6 | z3 .C3 | x6 | x6 | z2 A z3 | x6 | x6 | x6 |] %17
V:3
 [A,,A,]2 [A,,A,] [A,,A,]2 [A,,A,] | [B,,F,]2 [B,,F,] B,2 A, | [E,G,]2 [E,G,] [E,A,]2 [E,G,] | %3
 [A,,A,]2 [A,,A,] [A,,A,]3 | A,2 A, A,2 A, | [D,A,]2 [D,A,] [D,A,]3 | %6
 [E,A,][E,A,][E,A,] [E,A,]2 [E,A,] | [E,G,]3 .[A,,A,]3 | [A,C]2 [A,C] [A,E]2 [A,E] | %9
 [D,D]2 [D,D] [D,A,]3 | [A,,A,]2 [A,,A,] [F,A,]2 [F,A,] | [B,,A,]2 [B,,A,] [E,G,]2 [G,B,] | %12
 [A,C]2 [A,C] [A,E]2 [A,E] | [A,E]2 [C,A,] [D,A,]3 | [D,A,][D,A,][D,A,] [E,A,]2 [E,A,] | %15
 [E,G,]3 [A,,A,]3- | [A,,A,]6 |] %17
V:4
 x6 | z3 B,,3 | x6 | x6 | x6 | x6 | x6 | x6 | x6 | x6 | x6 | x6 | x6 | x6 | x6 | x6 | x6 |] %17

